rospo-icon-theme-classic-common/24x24/apps/com.github.danrabbit.harvey.svg

<svg height="24" width="24" xmlns="http://www.w3.org/2000/svg"><path d="m6.95 4v16h14.05c.554 0 1-.446 1-1v-14c0-.554-.446-1-1-1z" fill="#23c2c2"/><path d="m3 4c-.554 0-1 .446-1 1v14c0 .554.446 1 1 1h4v-16z" fill="#e4e4e4"/><path d="m3 4c-.554 0-1 .446-1 1v .5c0-.554.446-1 1-1h18c .554 0 1 .446 1 1v-.5c0-.554-.446-1-1-1z" fill="#fff" opacity=".2"/><path d="m2 19v .5c0 .554.446 1 1 1h18c .554 0 1-.446 1-1v-.5c0 .554-.446 1-1 1h-18c-.554 0-1-.446-1-1z" opacity=".2"/><circle cx="15" cy="12" fill="#3f3f3f" r="5"/><path d="m304.9375 131.9375-4.9375 4.9375-1.9375-1.9375-2.125 2.125 3 3 1.0625 1.0625 1.0625-1.0625 6-6z" opacity=".2" transform="matrix(.4494382 0 0 .43537415 -120.505617 -46.942176)"/><path d="m304.9375 131.9375-4.9375 4.9375-1.9375-1.9375-2.125 2.125 3 3 1.0625 1.0625 1.0625-1.0625 6-6z" fill="#fff" transform="matrix(.4494382 0 0 .43537415 -120.505617 -47.442177)"/><path d="m7 4h .5v16h-.5z" opacity=".1"/></svg>

<svg xmlns="http://www.w3.org/2000/svg" width="24" height="24" version="1">
 <path style="fill:#23c2c2" d="m 6.95,4 0,16 14.05,0 c 0.554,0 1,-0.446 1,-1 L 22,5 C 22,4.446 21.554,4 21,4 Z"/>
 <path style="fill:#cccccc" d="M 3,4 C 2.446,4 2,4.446 2,5 l 0,14 c 0,0.554 0.446,1 1,1 L 7,20 7,4 Z"/>
 <path d="M 3,4 C 2.446,4 2,4.446 2,5 l 0,0.5 c 0,-0.554 0.446,-1 1,-1 l 18,0 c 0.554,0 1,0.446 1,1 L 22,5 C 22,4.446 21.554,4 21,4 L 3,4 Z" style="opacity:0.2;fill:#ffffff"/>
 <path style="opacity:0.2" d="m 2,19 0,0.5 c 0,0.554 0.446,1 1,1 l 18,0 c 0.554,0 1,-0.446 1,-1 L 22,19 c 0,0.554 -0.446,1 -1,1 L 3,20 C 2.446,20 2,19.554 2,19 Z"/>
 <circle style="fill:#3f3f3f" cx="15" cy="12" r="5"/>
 <g style="opacity:0.2" transform="matrix(0.4494382,0,0,0.43537415,11.179955,8.7857145)">
  <g transform="translate(-293.0004,-128)">
   <path d="M 304.9375,131.9375 300,136.875 l -1.9375,-1.9375 -2.125,2.125 3,3 1.0625,1.0625 1.0625,-1.0625 6,-6 -2.125,-2.125 z"/>
  </g>
 </g>
 <g transform="matrix(0.4494382,0,0,0.43537415,11.179955,8.2857145)" style="fill:#ffffff">
  <g transform="translate(-293.0004,-128)" style="fill:#ffffff">
   <path style="fill:#ffffff" d="M 304.9375,131.9375 300,136.875 l -1.9375,-1.9375 -2.125,2.125 3,3 1.0625,1.0625 1.0625,-1.0625 6,-6 -2.125,-2.125 z"/>
  </g>
 </g>
 <rect style="opacity:0.1" width=".5" height="16" x="7" y="4"/>
</svg>
